X:1
T:In the Early Morning, Early
T:In the Early Morning, Early
T:George Edgar Oliver, 1904
T:Frederick George  Lee
T:Public Domain Courtesy of the Cyber Hymnal™
T:Public Domain Courtesy of the Cyber Hymnal™
C:George Edgar Oliver, 1904
Z:Public Domain
Z:Courtesy of the Cyber Hymnal™
%%score ( 1 2 ) ( 3 4 )
L:1/8
Q:1/4=110
M:4/4
K:Ab
V:1 treble 
V:2 treble 
V:3 bass 
V:4 bass 
V:1
"^Allegro con brio" [Cc-]4 (cB=AB) | (cBAG) (F2 E2) | ([CEc]2 [C=Ec]2 [CFAc]2 =ed) | %3
w: ~ * * * *|~ * * * ~ *|~ * * * *|
w: ~ * * * *|~ * * * ~ *|~ * * * *|
w: ~ * * * *|~ * * * ~ *|~ * * * *|
 (c2 F2) [_DB]4 | [Cc-]4 (cB=AB) | (cBAG) (F2 E2) | a2 (gf) f(e=de) | (fedB) [EA]4 |: %8
w: ~ * ~|~ * * * *|~ * * * ~ *|~ ~ * ~ ~ * *|1.~In * * * the|
w: ~ * ~|~ * * * *|~ * * * ~ *|~ ~ * ~ ~ * *|2.~To * * * the|
w: ~ * ~|~ * * * *|~ * * * ~ *|~ ~ * ~ ~ * *|3.~Glo- * * * ry|
 [Ae]2 [Ac]2 [Ad]2 c2 | (BA) (Bc) [EB]2 [EA]2 | [FA]2 [=EG]2 F2 ([EG][FA]) | [=Dc]2 [DB]2 [_DE]4 | %12
w: ear- ly morn- ing,|ear- * ly, * Ere the|dawn was ev- en *|nigh, Glo- ri-|
w: hum- ble Beth- lehem|shep- * herds, * On the|first glad Christ- mas *|morn, Sang the|
w: in the heavens e-|ter- * nal, * Up- on|earth be glo- ry, *|too, For the|
 G3 G (AG) (^FG) x | A2 G2 E2 C2 | E2 [EG]2 [E=d]2 [Ec]2 | [=DF]3 [DG] E4 | %16
w: a in~ex- cel- * sis *|De- o, Glo- ry|be to God on|high. When the|
w: choir of God * an- *|gel- ic, “Christ, the|Son of God, is|born.” When the|
w: day of grace * hath *|brok- en, And a|King is born to|you. In the|
 [EG]2 [EA]2 [Gc]2 [FB]2 | [EA]2 [DG]2 [DF]2 [DE]2 | (EG) (BA) [DG]2 x2 | [DF]2 x6 | %20
w: crown- like stars were|lus- trous, When the|dew * was * on|the|
w: dew was white and|pearl- y Flashed a|light * a- * cross|the|
w: ear- ly morn- ing,|ear- ly, “Glo- ry|be * to * God|on|
 [DE]2 [DF]2 !fermata![DE]4 | [Ae]2 [Ac]2 [Ad]2 c2 | (BA) (Bc) [EB]2 [EA]2 | %23
w: sod, Sang the|an- gels to the|shep- * herds, * Sang the|
w: sky, In the|ear- ly morn- ing,|ear- * ly, * “Glo- ry|
w: high” Rang the|sound of an- gels|harp- * ing * Through the|
 [DA]2 (B=B) [Ec]2 [EA]2 :| [GB]3 [EA] !fermata![EA]4"^Play 3 times" :| %25
w: chor- is- * ters of|God. * *|
w: be to * God on|high.” * *|
w: still and * list’n- ing|sky. * *|
V:2
 x4 D4- | D4 C4 | x6 [FB]2 | =D4 x4 | x4 D4 | D4 C4 | [A-_c]4 A4 | G4 x4 |: x6 (AE) | E2 E2 x4 | %10
 x4 F2 x2 | x8 | G3 G x5 | A2 G2 E2 C2 | E2 x6 | x4 E4 | x8 | x8 | E2 E2 x4 | x8 | x8 | x6 (AE) | %22
 E2 E2 x4 | x2 D2 x4 :| x8 :| %25
V:3
 E,2 =E,2 F,4 | G,4 A,4 | ([A,,A,]2 [G,,G,]2 [F,,F,]2 [D,,D,]2) | ([B,,,B,,]2 [B,,A,]2) [E,G,]4 | %4
 E,2 =E,2 F,4 | G,4 A,4 | [D,F,A,_C]4 =C2 (=B,C) | D2 (B,D) [A,,A,C]4 |: %8
 [A,,C]2 [A,,E]2 [A,,F]2 [A,,E]2 | (DC) (DE) [E,D]2 [E,C]2 | %10
 [F,A,]2 [G,B,]2 [A,C]2 ([G,B,][F,A,]) | [B,,A,]2 [B,,A,]2 [E,G,]4 | G,3 G, ^F,G, x3 | %13
 A,2 G,2 E,2 C,2 | [B,,G,]2 [B,,G,]2 [B,,_G,]2 [B,,=A,]2 | [B,,A,]3 [B,,B,] [E,G,]4 | %16
 [E,B,]2 [E,C]2 [E,E]2 (=D_D) | [E,C]2 [E,B,]2 [E,A,]2 [E,G,]2 | (G,B,) (DC) [E,B,]2 [E,A,]2 | %19
 [E,G,]2 [E,A,]2 !fermata![E,G,]4 | [A,,C]2 [A,,E]2 [A,,F]2 [A,,E]2 | (DC) (DE) [E,D]2 [E,C]2 | %22
 [F,=B,]2 (_B,A,) [E,A,]2 [E,C]2 | [E,D]3 [A,C] !fermata![A,C]4"^Play 3 times" :| x8 :| %25
V:4
 A,,8 | A,,8 | x8 | x8 | A,,8 | A,,8 | x4 E,4 | E,4 x4 |: x8 | E,2 E,2 x4 | x8 | x8 | %12
 G,3 G, (A,G,) x ^F,G, | A,2 G,2 E,2 C,2 | x8 | x8 | x6 E,2 | x8 | E,2 E,2 x4 | x8 | x8 | %21
 E,2 E,2 x4 | x2 F,2 x4 | x8 :| x8 :| %25

